X:1
T:Vod Chorus vatum
T:Quod Chorus vatum
T:Jacobus Handl
C:Jacobus Handl
%%score [ 1 2 3 4 ]
L:1/8
Q:1/2=96
M:4/2
K:F
V:1 treble nm="Soprano" snm="S."
V:2 treble nm="Alto" snm="A."
V:3 treble nm="Tenor" snm="T."
V:4 bass nm="Bass" snm="B."
V:1
 z16 | z16 | D8 C8 | D4 F8 E4 | D8 C4 D4 | E8 F8 | E8 z4 D4- | D4 ^C4 D4 F4 | G4 E4 F4 A4 | %9
w: ||Quod Cho-|rus va- *|||tum ve-|* ne- ran- dus|o- lim, ve- ne-|
 c6 B2 A6 G2 | F4 E4 D4 C4 | G8 A8 | F12 G4 | A4 B4 c2 A2 d4- | d4 ^c4 d8 | c12 B4 | A4 G4 A4 c4- | %17
w: ran- * * *|dus _ o- *|* lim,|Spi- ri-|tu San- * * *|* * cto,|Spi- ri-|tu San- cto, Spi-|
 c2 c2 A4 c8 | c4 c8 c4 | c4 =B4 A8 | A4 d4 f4 e4- | e4 d8 ^c4 | d16 | z8 G8 | A8 G8 | F8 E8 | %26
w: * ri- tu San-|cto, ce- ci-|nit re- ple-|tus, ce- ce- nit|_ re- ple-|tus|in|_ De-|i _|
 D2 E2 F4 C4 c4 | A4 A4 A8 | A4 f4 f4 e4- | e2 d2 d4 d4 ^c4 | d8 z4 f4 | f4 e4- e2 d2 d4 | %32
w: fa- * * * ctum|ge- ni- tri-|ce, con- stat es-|* * se Ma- ri-|a, con-|stat es- * * se|
 d4 ^c4 d8 | z4 G8 ^F4 | G4 A4 B4 B4 | A8 z4 G4- | G4 ^F4 G4 A4 | B8 B8 | A16 |] %39
w: Ma- ri- a|con- stat|es- se Ma- ri-|a con-|* stat es- se|Ma- ri-|a.|
V:2
 D8 C8 | D4 F8 E4 | F4 A6 =B2 c2 A2 | =B4 c8 c4 | A2 B2 A8 G4 | A12 D4- | D4 ^C4 D4 F4 | G8 F4 A4 | %8
w: Quod Cho-|rus va- tum,|quod Cho- * * *|* rus va-||tum, ve-|* ne- ran- dus|o- lim, ve-|
 B4 A6 G2 F4- | F4 E4 F6 G2 | A8 A8 | B8 c8 | A8 c8- | c4 B4 A4 G4 | A8 z4 F4- | F4 G4 A4 B2 d2 | %16
w: ne- rna- * *||* dus|o- *|lim, Spi-|* ri- tu San-|cto, Spi-|* ri- tu San- *|
 c2 A2 d4 c4 A4 | G4 F4 G8 | A4 A8 A4 | G4 G4 E8 | ^F4 A4 A4 c4 | c4 A4 A4 A4- | A4 A4 B4 d4- | %23
w: * * * cto, Spi-|ri- tu San-|cto ce- ci-|nit re- ple-|tus, ce- ci- nit|re- ple- tus, ce-|* ci- nit re-|
 d4 c4 B8 | z8 G8 | A8 G8 | F8 E8 | D4 d6 ^c=B c4 | d4 d8 c4 | A4 B4 A8 | A8 d8- | d4 c4 A4 B4 | %32
w: * ple- tus|in|_ De-|i _|_ fa _ _ _|ctum ge- ni-|tri- ce con-|stat, con-|* stat es- se|
 A4 A4 A8 | z4 B8 A4 | B4 A4 G4 G4 | ^F8 z4 B4- | B4 A4 B4 A4 | G8 G8 | ^F16 |] %39
w: Ma- ri- a,|con- stat|es- se Ma- ri-|a, con-|* stat es- se|Ma- ri-|a.|
V:3
 z16 | D8 C8 | D4 F8 E4 | G4 A4 G8 | F6 D2 E2 D2 D4- | D4 ^C4 D8 | A8 F4 D4 | E8 A4 D4- | %8
w: |Quod Cho-|rus va- tum,|quod cho- rus|va- * * * *|* * tum,|quod Cho- rus|va- tum ve-|
 D4 ^C4 D4 F4 | G8 F8 | D4 E4 F4 A4 | D8 F8 | c12 B4 | A4 G4 F4 E2 D2 | E8 D8 | A12 G4 | %16
w: * ne- ran- dus|o- lim,|ve- ne- ran- dus|o- lim,|Spi- ri-|tu San- * * *|cto _|Spi- ri-|
 E4 D4 E4 F4 | E4 F8 E4 | F4 F8 E4 | E4 D8 ^C4 | D4 F8 A4 | G4 F4 E8 | D4 F4 G6 F2 | E4 A4 D4 E4 | %24
w: tu San- cto Spi-|ri- tu San-|cto, ce- ci-|nit re- ple-|tus, ce- ce-|nit re- ple-|tus, re- ple- *|* tus, re- ple-|
 F2 E2 C2 D2 E8 | z8 G8 | A8 G8 | F8 E8 | D8 A8 | F4 G4 E8 | F8 D8 | A8 ^F4 G4 | E4 E4 D8 | %33
w: * * * * tus|in|_ De-|i, _|fa- ctum|ge- ni- tri-|ce con-|stat es- se|Ma- ri- a,|
 z4 D8 D4 | D8 D4 D4 | D16 | D16- | D16- | D16 |] %39
w: con- stat|es- se Ma-|ri-|a.|||
V:4
 z8 A,8 | G,4 D,4 F,2 G,2 A,4 | D,6 E,2 F,4 A,4 | G,4 F,4 C,8 | D,4 D4 A,4 B,4 | A,8 D,4 D4 | %6
w: Quod|Cho- rus va- * *|tum, _ _ quod|Cho- rus va-|tum, quod Cho- rus|va- tum, quod|
 A,8 B,6 A,2 | G,4 E,4 D,8 | G,4 A,4 D8 | C8 F,4 D,4- | D,4 ^C,4 D,4 F,4 | G,8 F,8 | z8 F,8- | %13
w: Cho- rus _|va- * tum,|quod Cho- rus|va- tum ve-|* ne- ran- dus|o- lim,|Spi-|
 F,4 G,4 A,4 B,4 | A,8 D,8 | F,12 G,4 | A,4 B,4 A,4 F,4 | C4 D4 C8 | F,4 F,8 A,4 | C4 G,4 A,8 | %20
w: * ri- tu San-|cto, Spi-|ri- tu|San- cto, Spi- ri-|tu _ San-|cto ce- ci-|nit re- ple-|
 D,4 D8 A,4 | C4 D4 A,8 | D,8 G,8 | A,8 G,8 | F,8 E,8 | D,2 E,2 F,4 C,4 C4 | F4 D4 E4 C4 | %27
w: tus, ce- ci-|nit re- ple-|tus in|_ De-|i _|fa- * * ctum, in|De- i fa- ctum|
 D4 D,4 A,8 | D,4 D8 A,4 | D4 G,4 A,4 A,4 | D,8 z4 D4- | D4 A,4 D4 G,4 | A,4 A,4 D,8 | z4 G,8 D,4 | %34
w: ge- ni- tri-|ce con- stat|es- se Ma- ri-|a. con-|* stat es- se|Ma- ri- a.|con- stat|
 G,4 ^F,4 G,4 G,4 | D,8 z4 G,4- | G,4 D,4 G,4 ^F,4 | G,8 G,8 | D,16 |] %39
w: es- se Ma- ri-|a. con-|* stat es- se|Ma- ri-|a.|

